X:360
T: DER MORGEN TAGT HINAUS ZUR JAGD
N: F0635
O: Europa, Mitteleuropa, Deutschland
R: Staende -, Jaeger - Lied
M: 6/8
L: 1/8
K: Eb
E | E2B,B,2G | G2EE2
E | F2FFEF | G3-Gz
G | F2EDEF | G3Ez
G | F2EDEF | G3Ez
E | E2EFEF | G2
FFEF | G3z2
A | A2GFEF | G3Ez
A | A2GFEF | G3Ez
E | E2FFEF | G2
FF2E | E3-Ez
G | G3-G2E | D2DDEF | E2EEz
G | G2FF2E | E3-Ez
G | B3-BAF | E3z2

